X:1
T:Title
%%score { ( 1 3 5 ) | ( 2 4 ) }
L:1/8
Q:1/4=100
M:4/4
K:D
V:1 treble nm="Grand Piano"
V:3 treble 
V:5 treble 
V:2 bass 
V:4 bass 
V:1
 F2 F>F F>E F>G | A6 [DFA]2 | [DGB]2 [DGB]2 [DFA]3 [A,DF] |[M:3/4] [A,CE]6 |[M:1/4] [A,EG]2 | %5
w: Geo.~C.~Hugg * * * * * *|||||
[M:4/4] [A,DF]3 [A,DF] [A,DF]>[A,EG] [DFA]>[DGB] | F2- [Fd]2 z2 cB | [FA]2 [A,DF]2 [G,CE]3 [A,DF] | %8
w: |||
 [F,D]6 z2 | D2 D>D d2 [Ac]>[GB] | [FA]4 z4 | C2 C>C [EGc]2 [EGB]>[CGA] | [F-A]4 F2 z2 | [Af]4 z4 | %14
w: ||||||
 [Gd]4 z4 | A2 A>A (3AAA [GB]>[Gc] | [Fd]6 z2 |] %17
w: |||
V:2
 [D,A,D]2 [D,A,D]>[D,A,D] [D,A,D]>[G,A,C] [F,A,D]>[E,A,C] | [D,F,D]6 D,2 | G,2 G,2 D,3 D, | %3
[M:3/4] A,,6 |[M:1/4] C,2 |[M:4/4] D,3 D, D,>D, D,>D, | z2 A,2 z2 z G | [A,,D,]2 A,,2 A,,3 A,, | %8
 D,6 z2 | D,2 D,>D, [D,A,]2 [D,D]>[D,D] | (3[D,D]D,D, D,>D, D,2 z2 | A,2 A,>A, A,2 A,>G, | %12
 (3D,D,D, D,>D, [D,A,]2 z2 | [D,D]2 D,>D, [D,A,]2 [D,=C]>[D,C] | %14
 (3[G,B,]G,G, G,>G,[K:treble] [G,DG]2 z2 | %15
 [A,DF]2 [A,DF]>[A,DF] (3[A,CG][A,CG][A,CG][K:bass] [A,,A,]>[A,,A,] | [D,A,]6 z2 |] %17
V:3
 x8 | x8 | x8 |[M:3/4] x6 |[M:1/4] x2 |[M:4/4] x8 | [DA]2 z2 z4 | x8 | x8 | [F-A]4 F2 z2 | %10
 (3z DD z2 [A,DF]2 z2 | [EG]4 z4 | z2 D>D d2 z2 | z2 D>D [Fd]2 [Fe]>[Fd] | (3z B,B, z2 B2 z2 | x8 | %16
 x8 |] %17
V:4
 x8 | x8 | x8 |[M:3/4] x6 |[M:1/4] x2 |[M:4/4] x8 | D,4 z2 [G,,G,]2 | x8 | x8 | x8 | x8 | x8 | x8 | %13
 x8 | x4[K:treble] x4 | x6[K:bass] x2 | x8 |] %17
V:5
 x8 | x8 | x8 |[M:3/4] x6 |[M:1/4] x2 |[M:4/4] x8 | x8 | x8 | x8 | x8 | z2 D>D z4 | x8 | %12
 (3DDD z2 z4 | x8 | z2 B,>B, z4 | x8 | x8 |] %17

